X:27
T:Allez-vous en sur les places - T28
C:O. Vercruysse
M:6/8
L:1/8
K:A
E3|F3 G3|A3- ABA|GFE- E3|F3 ECD|E3 EFG|A3- ABA|GFE- E3|F2F EDC|
B,6|EEE ECE|FF2- F2F|F2F- F DF|G6|GGG GEG|A2A- A3|zAA G2A|B3 EAB|
c3 c2d|cBA- A2A|d2c- c BA|B3- BAG|A6-|A6||z6|z3 zED|C3- CED|
C2-C C3|F2E D2C|B,3- B, ED|C2C- C CB,|A,2A,- A,3|zDD DCD|E3- ECB,|
A,3- A,CB,|A,3- A,CB,|A,3- A,G,A,|B,3- B,2E|E2E- E CE|F3 FE^D|E3 E3|]
